.local/share/icons/Gruvbox-Plus-Dark/actions/16/kdenlive-show-audiothumb.svg

<svg xmlns="http://www.w3.org/2000/svg" width="16" height="16" viewBox="0 0 16 16">
 <defs>
  <style id="current-color-scheme" type="text/css">
   .ColorScheme-Text { color:#ebdbb2; } .ColorScheme-Highlight { color:#458588; }
  </style>
 </defs>
 <path style="fill:currentColor" class="ColorScheme-Text" d="M 5.9921875 3.0039062 L 5.9921875 7.2929688 L 3.7695312 5.5976562 L 3.7695312 7.3925781 L 0 7.2050781 L 0 8.8027344 L 3.7695312 8.6152344 L 3.7695312 10.410156 L 5.9921875 8.7148438 L 5.9921875 13.003906 L 9.46875 8.7324219 L 9.46875 9.8925781 L 11.662109 8.2207031 L 11.675781 8.21875 L 11.675781 11.615234 L 13.748047 8.59375 L 13.748047 9.5410156 L 16 8.0039062 L 13.748047 6.4667969 L 13.748047 7.4140625 L 11.675781 4.3925781 L 11.675781 7.7890625 L 11.662109 7.7871094 L 9.46875 6.1152344 L 9.46875 7.2753906 L 5.9921875 3.0039062 z"/>
</svg>

<svg width="16" height="16" version="1.1" xmlns="http://www.w3.org/2000/svg">
  <defs>
    <style id="current-color-scheme" type="text/css">.ColorScheme-Text { color:#ebdbb2; } .ColorScheme-Highlight { color:#458588; }</style>
  </defs>
  <path class="ColorScheme-Text" d="m5.992 3.004v4.289l-2.223-1.695v1.795l-3.77-0.1875v1.598l3.77-0.1875v1.795l2.223-1.695v4.289l3.477-4.271v1.16l2.193-1.672 0.01367-0.001953v3.396l2.072-3.021v0.9473l2.252-1.537-2.252-1.537v0.9473l-2.072-3.021v3.396l-0.01367-0.001953-2.193-1.672v1.16l-3.477-4.271z" fill="currentColor"/>
</svg>
